actions/22x22-light/format-text-direction-ltr.svg

<svg viewBox="0 0 22 22" xmlns="http://www.w3.org/2000/svg"><path d="m3 3v5h5v-5zm6 0v1h10v-1zm0 2v1h3v-1zm-6 4v1h10v-1zm0 2v1h4v-1zm0 4v1h10v-1zm0 2v1h7v-1zm8 1v1h2v-1z" fill="#4d4d4d"/></svg>

<svg xmlns="http://www.w3.org/2000/svg" viewBox="0 0 22 22">
  <defs id="defs3051">
    <style type="text/css" id="current-color-scheme">
      .ColorScheme-Text {
        color:#4d4d4d;
      }
      </style>
  </defs>
 <path 
    style="fill:currentColor;fill-opacity:1;stroke:none" 
    d="M 3 3 L 3 8 L 8 8 L 8 3 L 3 3 z M 9 3 L 9 4 L 19 4 L 19 3 L 9 3 z M 9 5 L 9 6 L 12 6 L 12 5 L 9 5 z M 3 9 L 3 10 L 13 10 L 13 9 L 3 9 z M 3 11 L 3 12 L 7 12 L 7 11 L 3 11 z M 3 15 L 3 16 L 13 16 L 13 15 L 3 15 z M 3 17 L 3 18 L 10 18 L 10 17 L 3 17 z M 11 18 L 11 19 L 13 19 L 13 18 L 11 18 z "
    class="ColorScheme-Text"
    />  
</svg>
